X: 667
T: Ida Red
B: jims roots
M:2/4
L:1/8
Q: 1/4=100
K:A
V:1 
|:xe2 | "A"aaga ecAc | "D"defd "A"ecAc | aaga ecAc | "E"BcBA Bcde |
"A"aaga ecAc | "D"defd ecAc | eaga edcd | "E"edcB "A"A2z2:|
|:xA2 | "A"c4c4 | cBAc BAFE | c2 Bc A2 FA | "E"EFAB "A"A2A2 |
"A"c2 A2 c2 A2 | cBAc BAFE | c2 Bc A2 FA | "E"EFAB "A"A2z2:|
% abcbook-tune_id 6298c25d924a34ec28a50aef


% abcbook-boost 0
% abcbook-tablature 
% abcbook-transpose 
% abcbook-lastupdated 1654178398976
% abcbook-soundfonts 
% abcbook-repeats 1


